packages/katcn/src/icons/svg/addFolder.svg

<svg width="24" height="25" viewBox="0 0 24 25" fill="none" xmlns="http://www.w3.org/2000/svg">
<path fill-rule="evenodd" clip-rule="evenodd" d="M2 6.85219C2 4.89332 3.51277 3.28809 5.48619 3.28809H8.96685C10.0949 3.28809 11.1746 3.68204 11.9849 4.62917L13.1489 5.74962H18.5138C20.4872 5.74962 22 7.35486 22 9.31373V17.724C22 19.6829 20.4872 21.2881 18.5138 21.2881H5.48619C3.51277 21.2881 2 19.6829 2 17.724V6.85219ZM5.48619 5.28809C4.67507 5.28809 4 5.93926 4 6.85219V17.724C4 18.6369 4.67507 19.2881 5.48619 19.2881H18.5138C19.3249 19.2881 20 18.6369 20 17.724V9.31373C20 8.4008 19.3249 7.74962 18.5138 7.74962H12.7459C12.4872 7.74962 12.2387 7.64943 12.0524 7.47008L10.5606 6.03418C10.534 6.00851 10.5087 5.98137 10.4851 5.9529C10.1061 5.49695 9.61099 5.28809 8.96685 5.28809H5.48619Z" fill="black"/>
<path fill-rule="evenodd" clip-rule="evenodd" d="M12 9.78809C12.5523 9.78809 13 10.2358 13 10.7881V15.7881C13 16.3404 12.5523 16.7881 12 16.7881C11.4477 16.7881 11 16.3404 11 15.7881V10.7881C11 10.2358 11.4477 9.78809 12 9.78809Z" fill="black"/>
<path fill-rule="evenodd" clip-rule="evenodd" d="M8.5 13.2881C8.5 12.7358 8.94772 12.2881 9.5 12.2881H14.5C15.0523 12.2881 15.5 12.7358 15.5 13.2881C15.5 13.8404 15.0523 14.2881 14.5 14.2881H9.5C8.94772 14.2881 8.5 13.8404 8.5 13.2881Z" fill="black"/>
</svg>

<svg xmlns="http://www.w3.org/2000/svg" fill="none" viewBox="0 0 24 25"><path fill="#000" fill-rule="evenodd" d="M2 6.852c0-1.959 1.513-3.564 3.486-3.564h3.48c1.129 0 2.209.394 3.019 1.341l1.164 1.12h5.365C20.487 5.75 22 7.356 22 9.315v8.41c0 1.959-1.513 3.564-3.486 3.564H5.486C3.513 21.288 2 19.683 2 17.724zm3.486-1.564C4.676 5.288 4 5.94 4 6.852v10.872c0 .913.675 1.564 1.486 1.564h13.028c.81 0 1.486-.651 1.486-1.564v-8.41c0-.913-.675-1.564-1.486-1.564h-5.768a1 1 0 0 1-.694-.28l-1.491-1.436a1 1 0 0 1-.076-.081c-.379-.456-.874-.665-1.518-.665z" clip-rule="evenodd"/><path fill="#000" fill-rule="evenodd" d="M12 9.788a1 1 0 0 1 1 1v5a1 1 0 1 1-2 0v-5a1 1 0 0 1 1-1" clip-rule="evenodd"/><path fill="#000" fill-rule="evenodd" d="M8.5 13.288a1 1 0 0 1 1-1h5a1 1 0 1 1 0 2h-5a1 1 0 0 1-1-1" clip-rule="evenodd"/></svg>
